communes/762.svg

<?xml version="1.0" encoding="UTF-8" standalone="no"?>
<svg
   xmlns:dc="http://purl.org/dc/elements/1.1/"
   xmlns:cc="http://web.resource.org/cc/"
   xmlns:rdf="http://www.w3.org/1999/02/22-rdf-syntax-ns#"
   xmlns:svg="http://www.w3.org/2000/svg"
   xmlns="http://www.w3.org/2000/svg"
   xmlns:xlink="http://www.w3.org/1999/xlink"
   xmlns:sodipodi="http://sodipodi.sourceforge.net/DTD/sodipodi-0.dtd"
   xmlns:inkscape="http://www.inkscape.org/namespaces/inkscape"
   height="763"
   width="603"
   version="1.0"
   id="svg20"
   sodipodi:version="0.32"
   inkscape:version="0.44.1"
   sodipodi:docname="Diemtigen-coat of arms.svg"
   sodipodi:docbase="F:\Mis Documentos\Mis imágenes\Encyclopédie\Escudos de Suiza\Escudos ya hechos">
  <metadata
     id="metadata31">
    <rdf:RDF>
      <cc:Work
         rdf:about="">
        <dc:format>image/svg+xml</dc:format>
        <dc:type
           rdf:resource="http://purl.org/dc/dcmitype/StillImage" />
        <dc:date>07-AUG-2006</dc:date>
        <dc:creator>
          <cc:Agent>
            <dc:title>Jérôme BLUM (wagner51)</dc:title>
          </cc:Agent>
        </dc:creator>
        <cc:license
           rdf:resource="http://creativecommons.org/licenses/GPL/2.0/" />
        <dc:coverage />
        <dc:description>Gabarit pour le Projet:Blasons de WIkipédia</dc:description>
        <dc:subject>
          <rdf:Bag>
            <rdf:li>blason suisse modèle gabarit projet blasons</rdf:li>
          </rdf:Bag>
        </dc:subject>
        <dc:language>fr</dc:language>
        <dc:title>Gabrit d'un blason suisse</dc:title>
      </cc:Work>
      <cc:License
         rdf:about="http://creativecommons.org/licenses/GPL/2.0/">
        <cc:permits
           rdf:resource="http://web.resource.org/cc/Reproduction" />
        <cc:permits
           rdf:resource="http://web.resource.org/cc/Distribution" />
        <cc:requires
           rdf:resource="http://web.resource.org/cc/Notice" />
        <cc:permits
           rdf:resource="http://web.resource.org/cc/DerivativeWorks" />
        <cc:requires
           rdf:resource="http://web.resource.org/cc/ShareAlike" />
        <cc:requires
           rdf:resource="http://web.resource.org/cc/SourceCode" />
      </cc:License>
    </rdf:RDF>
  </metadata>
  <defs
     id="defs29">
    <linearGradient
       id="linearGradient2893">
      <stop
         style="stop-color:#ffffff;stop-opacity:0.3137255;"
         offset="0"
         id="stop2895" />
      <stop
         id="stop2897"
         offset="0.19"
         style="stop-color:#ffffff;stop-opacity:0.25098041;" />
      <stop
         style="stop-color:#6b6b6b;stop-opacity:0.1254902;"
         offset="0.60000002"
         id="stop2901" />
      <stop
         style="stop-color:#000000;stop-opacity:0.1254902;"
         offset="1"
         id="stop2899" />
    </linearGradient>
    <linearGradient
       id="linearGradient2955">
      <stop
         style="stop-color:white;stop-opacity:0;"
         offset="0"
         id="stop2965" />
      <stop
         style="stop-color:black;stop-opacity:0.64583331;"
         offset="1"
         id="stop2959" />
    </linearGradient>
    <radialGradient
       inkscape:collect="always"
       xlink:href="#linearGradient2893"
       id="radialGradient3236"
       gradientUnits="userSpaceOnUse"
       gradientTransform="matrix(1.215027,1.531577e-24,1.464684e-23,1.266667,-839.1924,-490.4894)"
       cx="858.04236"
       cy="579.93323"
       fx="858.04236"
       fy="579.93323"
       r="300" />
  </defs>
  <sodipodi:namedview
     inkscape:window-height="682"
     inkscape:window-width="1024"
     inkscape:pageshadow="2"
     inkscape:pageopacity="0.0"
     guidetolerance="10.0"
     gridtolerance="10.0"
     objecttolerance="10.0"
     borderopacity="1.0"
     bordercolor="#666666"
     pagecolor="#ffffff"
     id="base"
     inkscape:zoom="0.50607109"
     inkscape:cx="249.70237"
     inkscape:cy="415.41106"
     inkscape:window-x="-4"
     inkscape:window-y="-4"
     inkscape:current-layer="layer2"
     showgrid="true"
     showguides="true"
     inkscape:guide-bbox="true" />
  <desc
     id="desc22">Coat of Arms of Canton of Freiburg (Fribourg)</desc>
  <g
     inkscape:groupmode="layer"
     id="layer1"
     inkscape:label="Fond écu"
     sodipodi:insensitive="true">
    <path
       id="path1899"
       d="M 1.5,1.49998 L 1.5,460.3679 C 1.5,626.6785 135.81456,761.5 301.49999,761.5 C 467.18543,761.5 601.5,626.6785 601.5,460.3679 L 601.5,1.49998 L 1.5,1.49998 z "
       style="fill:#e20909;fill-opacity:1" />
  </g>
  <g
     inkscape:groupmode="layer"
     id="layer2"
     inkscape:label="Meubles"
     sodipodi:insensitive="true">
    <path
       style="fill:white;fill-opacity:1;fill-rule:evenodd;stroke:black;stroke-width:3;stroke-linecap:round;stroke-linejoin:round;stroke-miterlimit:4;stroke-opacity:1"
       d="M 301.5,1.5 L 301.5,408.125 L 316.0625,408.28125 L 316.3125,350.8125 L 342.1875,350.8125 L 342.1875,408.375 L 364.1875,408.5 L 364.9375,156.1875 L 341.46875,155.75 L 342.1875,63.125 L 383.8125,63.125 L 383,113.5625 L 406.28125,113.5625 L 407.90625,63.125 L 454.46875,63.125 L 454.46875,115.1875 L 480.34375,115.75 L 481.0625,63.125 L 521.875,63.125 L 519.78125,154.84375 C 510.10225,155.44625 505.46474,154.78125 492.8125,155.25 L 492.84375,656.15625 L 364.375,657.34375 L 364.0625,637.375 L 301.5,637.28125 L 301.5,761.5 C 452.79583,761.5 577.90504,649.06659 598.5,502.90625 L 598.5,1.5 L 301.5,1.5 z M 301.5,637.28125 L 301.5,408.125 L 284.34375,407.9375 L 284.09375,350.53125 L 258.84375,350.875 L 258.03125,409.03125 L 233.375,408.90625 L 232.25,154.09375 L 253.90625,154.09375 L 255.15625,63.125 L 220.21875,63.125 L 219.03125,115.1875 L 193.09375,115.1875 L 193.09375,63.125 L 149.53125,63.125 L 149.53125,115.1875 C 149.53125,115.1875 122.40625,115.1875 122.40625,115.1875 L 122.40625,63.125 L 77.5,63.125 L 77.5,155.71875 L 103.84375,155.6875 L 104.1875,657.71875 L 234.6875,657.65625 L 234.75,637.15625 L 301.5,637.28125 z "
       id="rect2807" />
    <path
       style="fill:white;fill-opacity:0;fill-rule:evenodd;stroke:black;stroke-width:3.00000262;stroke-linecap:round;stroke-linejoin:round;stroke-miterlimit:4;stroke-dasharray:none;stroke-opacity:1"
       d="M 300.50014,524.49992 C 283.11212,524.49992 269.00014,540.58702 269.00013,560.40866 C 269.00013,561.80197 269.07922,563.1779 269.21491,564.53 L 269.00013,564.53 L 269.00013,636.34753 L 332.00016,636.34753 L 332.00016,564.53 L 331.78538,564.53 C 331.92109,563.1779 332.00016,561.80197 332.00016,560.40866 C 332.00016,540.58705 317.88816,524.49992 300.50014,524.49992 z "
       id="path3701" />
    <path
       sodipodi:nodetypes="cc"
       style="fill:#e20909;fill-opacity:1;fill-rule:evenodd;stroke:black;stroke-width:3;stroke-linecap:butt;stroke-linejoin:miter;stroke-miterlimit:4;stroke-dasharray:none;stroke-opacity:1"
       d="M 233.35838,393.2298 L 234.65507,655.10976"
       id="path2804" />
    <path
       sodipodi:nodetypes="cc"
       id="path3691"
       d="M 364.38252,385.15163 L 364.35784,651.8389"
       style="fill:#e20909;fill-opacity:1;fill-rule:evenodd;stroke:black;stroke-width:3;stroke-linecap:butt;stroke-linejoin:miter;stroke-miterlimit:4;stroke-dasharray:none;stroke-opacity:1" />
    <path
       sodipodi:nodetypes="cc"
       id="path3693"
       d="M 234.01335,154.07383 C 97.758726,154.90132 101.95047,155.59994 101.95047,155.59994"
       style="fill:#e20909;fill-opacity:1;fill-rule:evenodd;stroke:black;stroke-width:3;stroke-linecap:butt;stroke-linejoin:miter;stroke-miterlimit:4;stroke-dasharray:none;stroke-opacity:1" />
    <path
       sodipodi:nodetypes="cc"
       style="opacity:0.9;fill:#e20909;fill-opacity:1;fill-rule:evenodd;stroke:black;stroke-width:3;stroke-linecap:butt;stroke-linejoin:miter;stroke-miterlimit:4;stroke-dasharray:none;stroke-opacity:1"
       d="M 500.94069,154.77245 C 364.68607,155.59994 359.25205,156.09394 359.25205,156.09394"
       id="path3695" />
    <rect
       style="fill:white;fill-opacity:1;fill-rule:evenodd;stroke:black;stroke-width:3.00000262;stroke-linecap:round;stroke-linejoin:round;stroke-miterlimit:4;stroke-dasharray:none;stroke-opacity:1"
       id="rect3697"
       width="27.000008"
       height="65.011299"
       x="152.42799"
       y="256.48911" />
    <rect
       y="259.28339"
       x="413.50012"
       height="62.216797"
       width="27.000008"
       id="rect3699"
       style="fill:#e20909;fill-opacity:1;fill-rule:evenodd;stroke:black;stroke-width:3.00000238;stroke-linecap:round;stroke-linejoin:round;stroke-miterlimit:4;stroke-dasharray:none;stroke-opacity:1" />
  </g>
  <g
     inkscape:groupmode="layer"
     id="layer3"
     inkscape:label="Reflet final"
     style="display:inline"
     sodipodi:insensitive="true">
    <path
       style="fill:url(#radialGradient3236);fill-opacity:1"
       d="M 1.5,1.5 L 1.5,460.3679 C 1.5,626.67854 135.81454,761.5 301.49993,761.5 C 467.1854,761.5 601.5,626.67854 601.5,460.3679 L 601.5,1.5 L 1.5,1.5 z "
       id="path2346" />
  </g>
  <g
     inkscape:groupmode="layer"
     id="layer4"
     inkscape:label="Contour final"
     style="display:inline"
     sodipodi:insensitive="true">
    <path
       style="fill:none;fill-opacity:1;stroke:black;stroke-width:3;stroke-miterlimit:4;stroke-dasharray:none;stroke-opacity:1"
       d="M 1.5,1.5 L 1.5,460.36794 C 1.5,626.67854 135.81454,761.5 301.49993,761.5 C 467.1854,761.5 601.5,626.67854 601.5,460.36794 L 601.5,1.5 L 1.5,1.5 z "
       id="path3239" />
  </g>
</svg>

<?xml version="1.0" encoding="UTF-8"?>
<svg version="1.0" viewBox="0 0 603 763" xmlns="http://www.w3.org/2000/svg" xmlns:cc="http://web.resource.org/cc/" xmlns:dc="http://purl.org/dc/elements/1.1/" xmlns:rdf="http://www.w3.org/1999/02/22-rdf-syntax-ns#" xmlns:xlink="http://www.w3.org/1999/xlink">
<metadata>
<rdf:RDF>
<cc:Work rdf:about="">
<dc:format>image/svg+xml</dc:format>
<dc:type rdf:resource="http://purl.org/dc/dcmitype/StillImage"/>
<dc:date>07-AUG-2006</dc:date>
<dc:creator>
<cc:Agent>
<dc:title>Jérôme BLUM (wagner51)</dc:title>
</cc:Agent>
</dc:creator>
<cc:license rdf:resource="http://creativecommons.org/licenses/GPL/2.0/"/>
<dc:coverage/>
<dc:description>Gabarit pour le Projet:Blasons de WIkipédia</dc:description>
<dc:subject>
<rdf:Bag>
<rdf:li>blason suisse modèle gabarit projet blasons</rdf:li>
</rdf:Bag>
</dc:subject>
<dc:language>fr</dc:language>
<dc:title>Gabrit d'un blason suisse</dc:title>
</cc:Work>
<cc:License rdf:about="http://creativecommons.org/licenses/GPL/2.0/">
<cc:permits rdf:resource="http://web.resource.org/cc/Reproduction"/>
<cc:permits rdf:resource="http://web.resource.org/cc/Distribution"/>
<cc:requires rdf:resource="http://web.resource.org/cc/Notice"/>
<cc:permits rdf:resource="http://web.resource.org/cc/DerivativeWorks"/>
<cc:requires rdf:resource="http://web.resource.org/cc/ShareAlike"/>
<cc:requires rdf:resource="http://web.resource.org/cc/SourceCode"/>
</cc:License>
</rdf:RDF>
</metadata>
<defs>
<radialGradient id="a" cx="858.04" cy="579.93" r="300" gradientTransform="matrix(1.215 1.5316e-24 1.4647e-23 1.2667 -839.19 -490.49)" gradientUnits="userSpaceOnUse">
<stop stop-color="#fff" stop-opacity=".31373" offset="0"/>
<stop stop-color="#fff" stop-opacity=".25098" offset=".19"/>
<stop stop-color="#6b6b6b" stop-opacity=".12549" offset=".6"/>
<stop stop-opacity=".12549" offset="1"/>
</radialGradient>
</defs>
<desc>Coat of Arms of Canton of Freiburg (Fribourg)</desc>
<path d="m1.5 1.5v458.87c0 166.31 134.31 301.13 300 301.13 165.69 0 300-134.82 300-301.13v-458.87h-600z" fill="#e20909"/>
<g stroke="#000">
<path d="m301.5 1.5v406.62l14.562 0.15625 0.25-57.469h25.875v57.562l22 0.125 0.75-252.31-23.469-0.4375 0.71875-92.625h41.625l-0.8125 50.438h23.281l1.625-50.438h46.562v52.062l25.875 0.5625 0.71875-52.625h40.812l-2.0938 91.719c-9.679 0.6025-14.317-0.0625-26.969 0.40625l0.03125 500.91-128.47 1.1875-0.3125-19.969-62.562-0.09375v124.22c151.3 0 276.41-112.43 297-258.59v-501.41h-297zm0 635.78v-229.16l-17.156-0.1875-0.25-57.406-25.25 0.34375-0.8125 58.156-24.656-0.125-1.125-254.81h21.656l1.25-90.969h-34.938l-1.1875 52.062h-25.938v-52.062h-43.562v52.062h-27.125v-52.062h-44.906v92.594l26.344-0.03125 0.34375 502.03 130.5-0.0625 0.0625-20.5 66.75 0.125z" fill="#fff" fill-rule="evenodd" stroke-linecap="round" stroke-linejoin="round" stroke-width="3"/>
<path d="m300.5 524.5c-17.388 0-31.5 16.087-31.5 35.909 0 1.3933 0.07909 2.7692 0.21478 4.1213h-0.21478v71.818h63v-71.818h-0.21478c0.13571-1.3521 0.21478-2.728 0.21478-4.1213 0-19.822-14.112-35.909-31.5-35.909z" fill-opacity="0" stroke-linecap="round" stroke-linejoin="round" stroke-width="3"/>
<path d="m233.36 393.23 1.2967 261.88" fill="#e20909" fill-rule="evenodd" stroke-width="3"/>
<path d="m364.38 385.15-0.02468 266.69" fill="#e20909" fill-rule="evenodd" stroke-width="3"/>
<path d="m234.01 154.07c-136.25 0.82749-132.06 1.5261-132.06 1.5261" fill="#e20909" fill-rule="evenodd" stroke-width="3"/>
<path d="m500.94 154.77c-136.25 0.82749-141.69 1.3215-141.69 1.3215" fill="#e20909" fill-rule="evenodd" opacity=".9" stroke-width="3"/>
<rect x="152.43" y="256.49" width="27" height="65.011" fill="#fff" fill-rule="evenodd" stroke-linecap="round" stroke-linejoin="round" stroke-width="3"/>
<rect x="413.5" y="259.28" width="27" height="62.217" fill="#e20909" fill-rule="evenodd" stroke-linecap="round" stroke-linejoin="round" stroke-width="3"/>
</g>
<g>
<path d="m1.5 1.5v458.87c0 166.31 134.31 301.13 300 301.13 165.69 0 300-134.82 300-301.13v-458.87h-600z" fill="url(#a)"/>
<path d="m1.5 1.5v458.87c0 166.31 134.31 301.13 300 301.13 165.69 0 300-134.82 300-301.13v-458.87h-600z" fill="none" stroke="#000" stroke-width="3"/>
</g>
</svg>
